workspaces/osm/styles/symbols/wilderness_hut.svg

<svg width="14" height="14" version="1.1" viewBox="0 0 14 14" xmlns="http://www.w3.org/2000/svg"><rect id="a" width="14" height="14" fill="none" visibility="hidden"/><path id="b" d="m8 0v2c-0.33333-0.16667-0.66667-0.33333-1-0.5-2.3333 1.1667-4.6667 2.3333-7 3.5v2c0.5-0.2168 1-0.43359 1.5-0.65039v7.6504h1.5v-8.3008c1.3333-0.56641 2.6667-1.1328 4-1.6992 0.33333 0.14193 0.66667 0.28385 1 0.42578v4.5742h-3.5c0.025459 1.6666-0.034241 3.3334 0 5h5c0.018271-2.9791 0.00595-5.9583 0-8.9375l1.5 0.63672v8.3008h1.5v-7.6504c0.5 0.2168 1 0.43359 1.5 0.65039v-2l-4.5-2.25c-0.0015514-0.91667-1.4e-6 -1.8333 0-2.75h-1.5zm-1 11c0.48422-0.0018 0.9767 0.35456 0.99361 0.86586 0.013743 0.37768 0.0029586 0.75613 0.0063858 1.1341h-2c0.010686-0.41836-0.024653-0.83992 0.024719-1.2557 0.075896-0.46356 0.53407-0.7354 0.97528-0.74429z"/></svg>

<?xml version="1.0" encoding="UTF-8" standalone="no"?>
<svg
   xmlns:dc="http://purl.org/dc/elements/1.1/"
   xmlns:cc="http://creativecommons.org/ns#"
   xmlns:rdf="http://www.w3.org/1999/02/22-rdf-syntax-ns#"
   xmlns:svg="http://www.w3.org/2000/svg"
   xmlns="http://www.w3.org/2000/svg"
   version="1.1"
   width="14"
   height="14"
   viewBox="0 0 14 14"
   id="svg2">
  <metadata
     id="metadata8">
    <rdf:RDF>
      <cc:Work
         rdf:about="">
        <dc:format>image/svg+xml</dc:format>
        <dc:type
           rdf:resource="http://purl.org/dc/dcmitype/StillImage" />
        <dc:title></dc:title>
      </cc:Work>
    </rdf:RDF>
  </metadata>
  <defs
     id="defs6" />
  <rect
     width="14"
     height="14"
     x="0"
     y="0"
     id="canvas"
     style="fill:none;stroke:none;visibility:hidden" />
  <path
     id="wilderness-hut"
     d="M 8,0 8,2 7,1.5 0,5 0,7 1.5,6.3496094 1.5,14 3,14 3,5.6992188 7,4 8,4.4257812 8,9 4.5,9 c 0.025314,1.65157 -0.034277,3.38952 0,5 l 5,0 C 9.518206,11.046736 9.50603,8.0503867 9.5,5.0625 L 11,5.6992188 11,14 12.5,14 12.5,6.3496094 14,7 14,5 9.5,2.75 C 9.4984477,1.8314022 9.5,0.9158261 9.5,0 L 8,0 Z M 7,11 c 0,0 1,0 1,1 l 0,1 -2,0 0,-1 c 0,-1 1,-1 1,-1 z" style="fill:#000000;fill-opacity:1;stroke:none" />
</svg>
